X:1
T:Gavotte d'Honneur
C:Traditionnel Bretagne, fichier abc : Bernard Loffet
L:1/8
Q:290
M:2/2
K:G
B | [AD,,D,]G[FD,,D,]G [AD,,D,]B[GG,,G,]B | [AD,,D,]G[FD,,D,]G [A2D,,2D,2][GG,,G,]B | \
 [AD,,D,]G[FD,,D,]G [AD,,D,]B[GG,,G,]B | [AD,,D,]G[FD,,D,]G [A2D,,2D,2][G2G,,2G,2] | \
 [AD,,D,]A/A/[AD,,D,]d [cD,,D,]B[AD,,D,]G | [AD,,D,]B[cD,,D,]d [cD,,D,]B[A2D,,2D,2] | \
 [AD,,D,]A/A/[AD,,D,]d [cD,,D,]B[AD,,D,]G | [AD,,D,]G[FD,,D,]G [A2D,,2D,2][G2G,,2G,2] | \
W:Created with TablEdit http://www.tabledit.com/ by Bernard Loffet
